austria/municipalities/50406.svg

<?xml version="1.0" encoding="UTF-8"?>
<!DOCTYPE svg PUBLIC "-//W3C//DTD SVG 1.1//EN" "http://www.w3.org/Graphics/SVG/1.1/DTD/svg11.dtd">
<svg xmlns="http://www.w3.org/2000/svg" version="1.1" width="159px" height="192px" style="shape-rendering:geometricPrecision; text-rendering:geometricPrecision; image-rendering:optimizeQuality; fill-rule:evenodd; clip-rule:evenodd" xmlns:xlink="http://www.w3.org/1999/xlink">
<g><path style="opacity:1" fill="#0b0707" d="M -0.5,-0.5 C 52.5,-0.5 105.5,-0.5 158.5,-0.5C 158.5,40.1667 158.5,80.8333 158.5,121.5C 152.906,150.586 136.906,171.753 110.5,185C 100.932,188.237 91.2656,190.404 81.5,191.5C 79.8333,191.5 78.1667,191.5 76.5,191.5C 35.2484,186.587 9.58174,163.92 -0.5,123.5C -0.5,82.1667 -0.5,40.8333 -0.5,-0.5 Z"/></g>
<g><path style="opacity:1" fill="#fcfcfc" d="M 75.5,9.5 C 74.0735,11.1484 73.2401,13.1484 73,15.5C 72.4971,20.1903 71.8304,24.857 71,29.5C 65.7225,36.6596 62.3892,44.6596 61,53.5C 59.056,57.1099 56.7226,60.4432 54,63.5C 53.5172,64.448 53.3505,65.448 53.5,66.5C 51.941,69.8683 51.1077,73.5349 51,77.5C 48.0186,82.1425 44.6852,86.4759 41,90.5C 39.6691,94.8264 38.5024,99.1597 37.5,103.5C 34.4275,105.569 32.0941,108.236 30.5,111.5C 28.338,115.14 26.838,119.14 26,123.5C 20.9794,127.001 17.8127,131.668 16.5,137.5C 15.1766,139.762 13.8432,142.096 12.5,144.5C 11.7261,145.711 10.8928,145.711 10,144.5C 6.48464,136.141 4.15131,127.474 3,118.5C 2.50001,79.8348 2.33335,41.1681 2.5,2.5C 27.5022,2.33336 52.5022,2.50003 77.5,3C 75.9837,4.89699 75.317,7.06365 75.5,9.5 Z"/></g>
<g><path style="opacity:1" fill="#f90000" d="M 116.5,92.5 C 115.757,88.085 113.424,84.7516 109.5,82.5C 109.262,80.5956 108.262,79.2623 106.5,78.5C 107.508,70.1765 105.008,63.1765 99,57.5C 96.5073,51.8404 94.3407,46.1737 92.5,40.5C 90.1704,35.8354 87.837,31.1688 85.5,26.5C 85.5,25.8333 85.5,25.1667 85.5,24.5C 85.4593,18.0706 84.126,12.0706 81.5,6.5C 81.5,5.16667 81.5,3.83333 81.5,2.5C 106.167,2.5 130.833,2.5 155.5,2.5C 155.667,40.5015 155.5,78.5015 155,116.5C 154.072,126.76 151.238,136.427 146.5,145.5C 143.418,137.001 138.585,129.667 132,123.5C 130.598,115.279 126.931,108.279 121,102.5C 119.562,98.9749 118.062,95.6415 116.5,92.5 Z"/></g>
<g><path style="opacity:1" fill="#fafafa" d="M 81.5,6.5 C 82.2042,12.7654 83.5376,18.7654 85.5,24.5C 85.5,25.1667 85.5,25.8333 85.5,26.5C 86.0701,32.0642 88.4035,36.7309 92.5,40.5C 93.3372,50.5065 97.1706,59.1731 104,66.5C 104.333,69.8333 104.667,73.1667 105,76.5C 105.278,77.4158 105.778,78.0825 106.5,78.5C 106.738,80.4044 107.738,81.7377 109.5,82.5C 111.841,85.8385 114.174,89.1719 116.5,92.5C 116.76,99.9534 119.927,105.953 126,110.5C 127.466,115.232 129.133,119.898 131,124.5C 138.124,131.075 142.957,139.075 145.5,148.5C 143.134,153.391 140.134,157.891 136.5,162C 133.7,161.934 131.367,160.767 129.5,158.5C 128.739,154.216 127.405,150.216 125.5,146.5C 125.291,145.078 124.791,143.745 124,142.5C 120.343,139.135 117.176,135.468 114.5,131.5C 114.88,129.302 114.213,127.635 112.5,126.5C 111.833,124.5 111.167,122.5 110.5,120.5C 109.345,116.668 107.012,113.668 103.5,111.5C 102.094,111.027 101.427,110.027 101.5,108.5C 101.204,106.597 100.537,104.93 99.5,103.5C 99.6621,101.473 99.4955,99.4727 99,97.5C 98.6174,96.944 98.1174,96.6107 97.5,96.5C 97.2178,95.2223 96.5511,94.2223 95.5,93.5C 93.1888,90.3368 91.0222,87.0035 89,83.5C 88.4382,78.9167 87.1048,74.5834 85,70.5C 84.2917,69.6195 83.4584,68.9528 82.5,68.5C 81.5,68.1667 80.8333,67.5 80.5,66.5C 79.3462,46.2397 79.1795,25.9064 80,5.5C 80.3826,6.05596 80.8826,6.38929 81.5,6.5 Z"/></g>
<g><path style="opacity:1" fill="#7b0000" d="M 77.5,65.5 C 77.8303,45.9928 77.497,26.6595 76.5,7.5C 76.7828,6.71087 77.2828,6.0442 78,5.5C 78.8291,25.6709 78.6625,45.6709 77.5,65.5 Z"/></g>
<g><path style="opacity:1" fill="#fa0000" d="M 76.5,7.5 C 77.497,26.6595 77.8303,45.9928 77.5,65.5C 72.3433,70.272 69.6766,76.272 69.5,83.5C 68.8902,84.391 68.5569,85.391 68.5,86.5C 65.8991,89.6043 63.0657,92.6043 60,95.5C 58.6489,104.92 54.3156,112.586 47,118.5C 45.3616,122.722 44.1949,127.055 43.5,131.5C 40.5914,134.981 37.9247,138.648 35.5,142.5C 34.8333,142.5 34.5,142.833 34.5,143.5C 30.7811,148.105 28.2811,153.439 27,159.5C 25.7581,160.872 24.2581,161.872 22.5,162.5C 18.0632,158.47 14.7299,153.637 12.5,148C 14.7174,144.849 16.0507,141.349 16.5,137.5C 19.5011,132.871 23.0011,128.537 27,124.5C 28.2755,120.177 29.4422,115.844 30.5,111.5C 33.5725,109.431 35.9059,106.764 37.5,103.5C 38.7899,102.942 39.6232,101.942 40,100.5C 40.3419,96.1623 41.6753,92.1623 44,88.5C 51.2627,82.9711 54.4294,75.6378 53.5,66.5C 56.3133,62.9021 59.1467,59.2355 62,55.5C 63.6519,50.5939 64.9852,45.5939 66,40.5C 68.503,37.4983 70.503,34.1649 72,30.5C 73.1688,23.4869 74.3355,16.4869 75.5,9.5C 76.3382,9.15829 76.6716,8.49162 76.5,7.5 Z"/></g>
<g><path style="opacity:1" fill="#292524" d="M 81.5,6.5 C 84.126,12.0706 85.4593,18.0706 85.5,24.5C 83.5376,18.7654 82.2042,12.7654 81.5,6.5 Z"/></g>
<g><path style="opacity:1" fill="#18100f" d="M 75.5,9.5 C 74.3355,16.4869 73.1688,23.4869 72,30.5C 70.503,34.1649 68.503,37.4983 66,40.5C 64.9852,45.5939 63.6519,50.5939 62,55.5C 59.1467,59.2355 56.3133,62.9021 53.5,66.5C 53.3505,65.448 53.5172,64.448 54,63.5C 56.7226,60.4432 59.056,57.1099 61,53.5C 62.3892,44.6596 65.7225,36.6596 71,29.5C 71.8304,24.857 72.4971,20.1903 73,15.5C 73.2401,13.1484 74.0735,11.1484 75.5,9.5 Z"/></g>
<g><path style="opacity:1" fill="#120a09" d="M 28.5,23.5 C 29.4959,23.4142 30.3292,23.7476 31,24.5C 35.6377,34.942 40.1377,45.442 44.5,56C 39.8049,67.8902 34.9715,79.7235 30,91.5C 24.3424,79.8487 19.5091,67.8487 15.5,55.5C 19.8367,44.8204 24.1701,34.1538 28.5,23.5 Z"/></g>
<g><path style="opacity:1" fill="#120908" d="M 127.5,23.5 C 133.415,33.8334 138.749,44.6668 143.5,56C 138.909,68.1158 133.742,79.9491 128,91.5C 123.028,79.7235 118.195,67.8902 113.5,56C 118.044,45.0826 122.711,34.2493 127.5,23.5 Z"/></g>
<g><path style="opacity:1" fill="#7e0000" d="M 28.5,55.5 C 28.8261,46.9832 28.4927,38.6499 27.5,30.5C 27.7828,29.7109 28.2828,29.0442 29,28.5C 29.824,37.6762 29.6573,46.6762 28.5,55.5 Z"/></g>
<g><path style="opacity:1" fill="#7e7f7e" d="M 130.5,30.5 C 129.507,38.6499 129.174,46.9832 129.5,55.5C 128.343,46.6762 128.176,37.6762 129,28.5C 129.717,29.0442 130.217,29.7109 130.5,30.5 Z"/></g>
<g><path style="opacity:1" fill="#f70000" d="M 30.5,28.5 C 34.4511,37.0761 38.4511,45.7428 42.5,54.5C 38.5546,55.4909 34.5546,55.8242 30.5,55.5C 30.5,46.5 30.5,37.5 30.5,28.5 Z"/></g>
<g><path style="opacity:1" fill="#f7f7f7" d="M 126.5,28.5 C 127.493,37.3178 127.827,46.3178 127.5,55.5C 123.445,55.8242 119.445,55.4909 115.5,54.5C 119.737,46.032 123.403,37.3654 126.5,28.5 Z"/></g>
<g><path style="opacity:1" fill="#f6f6f6" d="M 130.5,30.5 C 134.152,38.4739 137.819,46.4739 141.5,54.5C 137.555,55.4909 133.555,55.8242 129.5,55.5C 129.174,46.9832 129.507,38.6499 130.5,30.5 Z"/></g>
<g><path style="opacity:1" fill="#f70000" d="M 27.5,30.5 C 28.4927,38.6499 28.8261,46.9832 28.5,55.5C 24.8333,55.5 21.1667,55.5 17.5,55.5C 20.5501,47.0646 23.8834,38.7313 27.5,30.5 Z"/></g>
<g><path style="opacity:1" fill="#211312" d="M 85.5,26.5 C 87.837,31.1688 90.1704,35.8354 92.5,40.5C 88.4035,36.7309 86.0701,32.0642 85.5,26.5 Z"/></g>
<g><path style="opacity:1" fill="#7e0000" d="M 30.5,57.5 C 34.3507,56.1905 38.3507,56.1905 42.5,57.5C 42.3764,58.1067 42.0431,58.44 41.5,58.5C 38.0381,57.5184 34.3714,57.185 30.5,57.5 Z"/></g>
<g><path style="opacity:1" fill="#241715" d="M 92.5,40.5 C 94.3407,46.1737 96.5073,51.8404 99,57.5C 105.008,63.1765 107.508,70.1765 106.5,78.5C 105.778,78.0825 105.278,77.4158 105,76.5C 104.667,73.1667 104.333,69.8333 104,66.5C 97.1706,59.1731 93.3372,50.5065 92.5,40.5 Z"/></g>
<g><path style="opacity:1" fill="#7e7f7e" d="M 127.5,57.5 C 123.629,57.185 119.962,57.5184 116.5,58.5C 115.957,58.44 115.624,58.1067 115.5,57.5C 119.649,56.1905 123.649,56.1905 127.5,57.5 Z"/></g>
<g><path style="opacity:1" fill="#7e7f7e" d="M 129.5,57.5 C 133.351,56.1905 137.351,56.1905 141.5,57.5C 141.376,58.1067 141.043,58.44 140.5,58.5C 137.038,57.5184 133.371,57.185 129.5,57.5 Z"/></g>
<g><path style="opacity:1" fill="#f00000" d="M 28.5,57.5 C 28.8264,66.3494 28.493,75.0161 27.5,83.5C 24.1737,74.8446 20.8403,66.1779 17.5,57.5C 21.3147,56.1923 24.9813,56.1923 28.5,57.5 Z"/></g>
<g><path style="opacity:1" fill="#7e0000" d="M 28.5,57.5 C 29.6576,66.6575 29.8243,75.9908 29,85.5C 28.2828,84.9558 27.7828,84.2891 27.5,83.5C 28.493,75.0161 28.8264,66.3494 28.5,57.5 Z"/></g>
<g><path style="opacity:1" fill="#f90000" d="M 30.5,57.5 C 34.3714,57.185 38.0381,57.5184 41.5,58.5C 38.1552,67.5327 34.6552,76.5327 31,85.5C 30.5002,76.1726 30.3335,66.8393 30.5,57.5 Z"/></g>
<g><path style="opacity:1" fill="#f9f9f9" d="M 127.5,57.5 C 127.666,66.8393 127.5,76.1726 127,85.5C 123.345,76.5327 119.845,67.5327 116.5,58.5C 119.962,57.5184 123.629,57.185 127.5,57.5 Z"/></g>
<g><path style="opacity:1" fill="#7e7f7e" d="M 129.5,57.5 C 129.174,66.3494 129.507,75.0161 130.5,83.5C 130.217,84.2891 129.717,84.9558 129,85.5C 128.176,75.9908 128.342,66.6575 129.5,57.5 Z"/></g>
<g><path style="opacity:1" fill="#f9f9f9" d="M 129.5,57.5 C 133.371,57.185 137.038,57.5184 140.5,58.5C 137.117,66.8593 133.784,75.1926 130.5,83.5C 129.507,75.0161 129.174,66.3494 129.5,57.5 Z"/></g>
<g><path style="opacity:1" fill="#fc0000" d="M 80.5,66.5 C 80.8333,67.5 81.5,68.1667 82.5,68.5C 85.0156,73.8818 86.849,79.5485 88,85.5C 90.0001,88.6657 92.5001,91.3324 95.5,93.5C 96.5511,94.2223 97.2178,95.2223 97.5,96.5C 97.4095,99.1522 98.0762,101.485 99.5,103.5C 99.1201,105.698 99.7868,107.365 101.5,108.5C 101.427,110.027 102.094,111.027 103.5,111.5C 105.458,114.792 107.791,117.792 110.5,120.5C 111.167,122.5 111.833,124.5 112.5,126.5C 112.402,128.553 113.069,130.22 114.5,131.5C 116.976,137.318 120.642,142.318 125.5,146.5C 125.732,150.942 127.065,154.942 129.5,158.5C 130.254,161.091 131.921,162.924 134.5,164C 119.345,179.243 101.011,187.41 79.5,188.5C 79.1681,147.663 79.5014,106.997 80.5,66.5 Z"/></g>
<g><path style="opacity:1" fill="#f8f8f8" d="M 34.5,143.5 C 34.5,142.833 34.8333,142.5 35.5,142.5C 39.7472,139.928 42.4138,136.262 43.5,131.5C 45.7751,127.464 47.6085,123.131 49,118.5C 51.6667,115.833 54.3333,113.167 57,110.5C 58.2678,105.363 59.9344,100.363 62,95.5C 65.1662,93.147 67.3328,90.147 68.5,86.5C 68.5569,85.391 68.8902,84.391 69.5,83.5C 71.5312,80.5784 72.6978,77.2451 73,73.5C 74.3076,71.3586 75.8076,69.3586 77.5,67.5C 78.6666,107.496 78.8333,147.496 78,187.5C 56.6912,187.27 38.5246,179.436 23.5,164C 25.6089,162.859 27.4422,161.359 29,159.5C 30.8364,154.148 32.6697,148.815 34.5,143.5 Z"/></g>
<g><path style="opacity:1" fill="#100100" d="M 106.5,78.5 C 108.262,79.2623 109.262,80.5956 109.5,82.5C 107.738,81.7377 106.738,80.4044 106.5,78.5 Z"/></g>
<g><path style="opacity:1" fill="#1c1514" d="M 53.5,66.5 C 54.4294,75.6378 51.2627,82.9711 44,88.5C 41.6753,92.1623 40.3419,96.1623 40,100.5C 39.6232,101.942 38.7899,102.942 37.5,103.5C 38.5024,99.1597 39.6691,94.8264 41,90.5C 44.6852,86.4759 48.0186,82.1425 51,77.5C 51.1077,73.5349 51.941,69.8683 53.5,66.5 Z"/></g>
<g><path style="opacity:1" fill="#2e2625" d="M 109.5,82.5 C 113.424,84.7516 115.757,88.085 116.5,92.5C 114.174,89.1719 111.841,85.8385 109.5,82.5 Z"/></g>
<g><path style="opacity:1" fill="#1f1716" d="M 82.5,68.5 C 83.4584,68.9528 84.2917,69.6195 85,70.5C 87.1048,74.5834 88.4382,78.9167 89,83.5C 91.0222,87.0035 93.1888,90.3368 95.5,93.5C 92.5001,91.3324 90.0001,88.6657 88,85.5C 86.849,79.5485 85.0156,73.8818 82.5,68.5 Z"/></g>
<g><path style="opacity:1" fill="#131313" d="M 97.5,96.5 C 98.1174,96.6107 98.6174,96.944 99,97.5C 99.4955,99.4727 99.6621,101.473 99.5,103.5C 98.0762,101.485 97.4095,99.1522 97.5,96.5 Z"/></g>
<g><path style="opacity:1" fill="#380c01" d="M 99.5,103.5 C 100.537,104.93 101.204,106.597 101.5,108.5C 99.7868,107.365 99.1201,105.698 99.5,103.5 Z"/></g>
<g><path style="opacity:1" fill="#2b0a04" d="M 37.5,103.5 C 35.9059,106.764 33.5725,109.431 30.5,111.5C 32.0941,108.236 34.4275,105.569 37.5,103.5 Z"/></g>
<g><path style="opacity:1" fill="#211919" d="M 103.5,111.5 C 107.012,113.668 109.345,116.668 110.5,120.5C 107.791,117.792 105.458,114.792 103.5,111.5 Z"/></g>
<g><path style="opacity:1" fill="#2c1815" d="M 68.5,86.5 C 67.3328,90.147 65.1662,93.147 62,95.5C 59.9344,100.363 58.2678,105.363 57,110.5C 54.3333,113.167 51.6667,115.833 49,118.5C 47.6085,123.131 45.7751,127.464 43.5,131.5C 44.1949,127.055 45.3616,122.722 47,118.5C 54.3156,112.586 58.6489,104.92 60,95.5C 63.0657,92.6043 65.8991,89.6043 68.5,86.5 Z"/></g>
<g><path style="opacity:1" fill="#fbfbfb" d="M 158.5,121.5 C 158.5,144.833 158.5,168.167 158.5,191.5C 132.833,191.5 107.167,191.5 81.5,191.5C 91.2656,190.404 100.932,188.237 110.5,185C 136.906,171.753 152.906,150.586 158.5,121.5 Z"/></g>
<g><path style="opacity:1" fill="#fcfcfc" d="M -0.5,123.5 C 9.58174,163.92 35.2484,186.587 76.5,191.5C 50.8333,191.5 25.1667,191.5 -0.5,191.5C -0.5,168.833 -0.5,146.167 -0.5,123.5 Z"/></g>
<g><path style="opacity:1" fill="#1f100e" d="M 30.5,111.5 C 29.4422,115.844 28.2755,120.177 27,124.5C 23.0011,128.537 19.5011,132.871 16.5,137.5C 17.8127,131.668 20.9794,127.001 26,123.5C 26.838,119.14 28.338,115.14 30.5,111.5 Z"/></g>
<g><path style="opacity:1" fill="#482d2a" d="M 112.5,126.5 C 114.213,127.635 114.88,129.302 114.5,131.5C 113.069,130.22 112.402,128.553 112.5,126.5 Z"/></g>
<g><path style="opacity:1" fill="#2c2221" d="M 114.5,131.5 C 117.176,135.468 120.343,139.135 124,142.5C 124.791,143.745 125.291,145.078 125.5,146.5C 120.642,142.318 116.976,137.318 114.5,131.5 Z"/></g>
<g><path style="opacity:1" fill="#160503" d="M 43.5,131.5 C 42.4138,136.262 39.7472,139.928 35.5,142.5C 37.9247,138.648 40.5914,134.981 43.5,131.5 Z"/></g>
<g><path style="opacity:1" fill="#220a02" d="M 125.5,146.5 C 127.405,150.216 128.739,154.216 129.5,158.5C 127.065,154.942 125.732,150.942 125.5,146.5 Z"/></g>
</svg>

<svg xmlns="http://www.w3.org/2000/svg" width="159" height="192" style="shape-rendering:geometricPrecision;text-rendering:geometricPrecision;image-rendering:optimizeQuality;fill-rule:evenodd;clip-rule:evenodd"><path style="opacity:1" fill="#0b0707" d="M-.5-.5h159v122c-5.594 29.086-21.594 50.253-48 63.5-9.568 3.237-19.234 5.404-29 6.5h-5c-41.252-4.913-66.918-27.58-77-68V-.5z"/><path style="opacity:1" fill="#fcfcfc" d="M75.5 9.5c-1.427 1.648-2.26 3.648-2.5 6-.503 4.69-1.17 9.357-2 14-5.278 7.16-8.61 15.16-10 24a52.184 52.184 0 0 1-7 10 4.932 4.932 0 0 0-.5 3c-1.559 3.368-2.392 7.035-2.5 11a96.086 96.086 0 0 1-10 13 188.378 188.378 0 0 0-3.5 13c-3.072 2.069-5.406 4.736-7 8-2.162 3.64-3.662 7.64-4.5 12-5.02 3.501-8.187 8.168-9.5 14a406.753 406.753 0 0 0-4 7c-.774 1.211-1.607 1.211-2.5 0a99.394 99.394 0 0 1-7-26c-.5-38.665-.667-77.332-.5-116 25.002-.167 50.002 0 75 .5-1.516 1.897-2.183 4.064-2 6.5z"/><path style="opacity:1" fill="#f90000" d="M116.5 92.5c-.743-4.415-3.076-7.748-7-10-.238-1.904-1.238-3.238-3-4 1.008-8.323-1.492-15.324-7.5-21a179.921 179.921 0 0 1-6.5-17c-2.33-4.665-4.663-9.331-7-14v-2c-.04-6.43-1.374-12.43-4-18v-4h74c.167 38.002 0 76.001-.5 114-.928 10.26-3.762 19.927-8.5 29-3.082-8.499-7.915-15.833-14.5-22-1.402-8.221-5.069-15.221-11-21a148.174 148.174 0 0 0-4.5-10z"/><path style="opacity:1" fill="#fafafa" d="M81.5 6.5c.704 6.265 2.038 12.265 4 18v2c.57 5.564 2.903 10.23 7 14 .837 10.007 4.67 18.673 11.5 26l1 10c.278.916.778 1.582 1.5 2 .238 1.904 1.238 3.238 3 4 2.341 3.338 4.674 6.672 7 10 .26 7.453 3.427 13.453 9.5 18a174.909 174.909 0 0 0 5 14c7.124 6.575 11.957 14.575 14.5 24a59.218 59.218 0 0 1-9 13.5c-2.8-.066-5.133-1.233-7-3.5-.761-4.284-2.095-8.284-4-12a10.134 10.134 0 0 0-1.5-4c-3.657-3.365-6.824-7.032-9.5-11 .38-2.198-.287-3.865-2-5l-2-6c-1.155-3.832-3.488-6.832-7-9-1.406-.473-2.073-1.473-2-3-.296-1.903-.963-3.57-2-5a18.436 18.436 0 0 0-.5-6c-.383-.556-.883-.89-1.5-1-.282-1.278-.949-2.278-2-3a110.92 110.92 0 0 1-6.5-10 38.328 38.328 0 0 0-4-13c-.708-.88-1.542-1.547-2.5-2-1-.333-1.667-1-2-2a628.29 628.29 0 0 1-.5-61c.383.556.883.89 1.5 1z"/><path style="opacity:1" fill="#7b0000" d="M77.5 65.5c.33-19.507-.003-38.84-1-58 .283-.79.783-1.456 1.5-2 .83 20.17.662 40.17-.5 60z"/><path style="opacity:1" fill="#fa0000" d="M76.5 7.5a841.634 841.634 0 0 1 1 58c-5.157 4.772-7.823 10.772-8 18a5.728 5.728 0 0 0-1 3 106.25 106.25 0 0 1-8.5 9c-1.351 9.42-5.684 17.086-13 23a62.529 62.529 0 0 0-3.5 13 101.28 101.28 0 0 0-8 11c-.667 0-1 .333-1 1-3.719 4.605-6.219 9.939-7.5 16a10.939 10.939 0 0 1-4.5 3c-4.437-4.03-7.77-8.863-10-14.5 2.217-3.151 3.55-6.651 4-10.5 3.001-4.629 6.501-8.963 10.5-13a280.169 280.169 0 0 0 3.5-13c3.072-2.069 5.406-4.736 7-8 1.29-.558 2.123-1.558 2.5-3 .342-4.338 1.675-8.338 4-12 7.263-5.529 10.43-12.862 9.5-22a1227.31 1227.31 0 0 0 8.5-11 121.112 121.112 0 0 0 4-15 37.882 37.882 0 0 0 6-10l3.5-21c.838-.342 1.172-1.008 1-2z"/><path style="opacity:1" fill="#292524" d="M81.5 6.5c2.626 5.57 3.96 11.57 4 18-1.962-5.735-3.296-11.735-4-18z"/><path style="opacity:1" fill="#18100f" d="m75.5 9.5-3.5 21a37.882 37.882 0 0 1-6 10 121.112 121.112 0 0 1-4 15 1227.31 1227.31 0 0 1-8.5 11 4.932 4.932 0 0 1 .5-3 52.184 52.184 0 0 0 7-10c1.39-8.84 4.722-16.84 10-24 .83-4.643 1.497-9.31 2-14 .24-2.352 1.073-4.352 2.5-6z"/><path style="opacity:1" fill="#120a09" d="M28.5 23.5c.996-.086 1.83.248 2.5 1A1310.178 1310.178 0 0 1 44.5 56 1640.115 1640.115 0 0 1 30 91.5a280.879 280.879 0 0 1-14.5-36c4.337-10.68 8.67-21.346 13-32z"/><path style="opacity:1" fill="#120908" d="M127.5 23.5c5.915 10.333 11.249 21.167 16 32.5A390.727 390.727 0 0 1 128 91.5 1637.073 1637.073 0 0 1 113.5 56a1431.938 1431.938 0 0 1 14-32.5z"/><path style="opacity:1" fill="#7e0000" d="M28.5 55.5c.326-8.517-.007-16.85-1-25 .283-.79.783-1.456 1.5-2 .824 9.176.657 18.176-.5 27z"/><path style="opacity:1" fill="#7e7f7e" d="M130.5 30.5c-.993 8.15-1.326 16.483-1 25-1.157-8.824-1.324-17.824-.5-27 .717.544 1.217 1.21 1.5 2z"/><path style="opacity:1" fill="#f70000" d="M30.5 28.5c3.951 8.576 7.951 17.243 12 26a36.874 36.874 0 0 1-12 1v-27z"/><path style="opacity:1" fill="#f7f7f7" d="M126.5 28.5c.993 8.818 1.327 17.818 1 27a36.872 36.872 0 0 1-12-1 220.742 220.742 0 0 0 11-26z"/><path style="opacity:1" fill="#f6f6f6" d="M130.5 30.5c3.652 7.974 7.319 15.974 11 24a36.872 36.872 0 0 1-12 1c-.326-8.517.007-16.85 1-25z"/><path style="opacity:1" fill="#f70000" d="M27.5 30.5c.993 8.15 1.326 16.483 1 25h-11a401.697 401.697 0 0 1 10-25z"/><path style="opacity:1" fill="#211312" d="M85.5 26.5c2.337 4.669 4.67 9.335 7 14-4.097-3.77-6.43-8.436-7-14z"/><path style="opacity:1" fill="#7e0000" d="M30.5 57.5c3.85-1.31 7.85-1.31 12 0-.124.607-.457.94-1 1-3.462-.982-7.129-1.315-11-1z"/><path style="opacity:1" fill="#241715" d="M92.5 40.5a179.921 179.921 0 0 0 6.5 17c6.008 5.676 8.508 12.677 7.5 21-.722-.418-1.222-1.084-1.5-2l-1-10c-6.83-7.327-10.663-15.993-11.5-26z"/><path style="opacity:1" fill="#7e7f7e" d="M127.5 57.5c-3.871-.315-7.538.018-11 1-.543-.06-.876-.393-1-1 4.149-1.31 8.149-1.31 12 0zM129.5 57.5c3.851-1.31 7.851-1.31 12 0-.124.607-.457.94-1 1-3.462-.982-7.129-1.315-11-1z"/><path style="opacity:1" fill="#f00000" d="M28.5 57.5c.326 8.85-.007 17.516-1 26-3.326-8.655-6.66-17.322-10-26 3.815-1.308 7.481-1.308 11 0z"/><path style="opacity:1" fill="#7e0000" d="M28.5 57.5c1.158 9.157 1.324 18.49.5 28-.717-.544-1.217-1.21-1.5-2 .993-8.484 1.326-17.15 1-26z"/><path style="opacity:1" fill="#f90000" d="M30.5 57.5c3.871-.315 7.538.018 11 1a893.832 893.832 0 0 1-10.5 27c-.5-9.327-.666-18.66-.5-28z"/><path style="opacity:1" fill="#f9f9f9" d="M127.5 57.5c.166 9.34 0 18.673-.5 28a894.898 894.898 0 0 1-10.5-27c3.462-.982 7.129-1.315 11-1z"/><path style="opacity:1" fill="#7e7f7e" d="M129.5 57.5c-.326 8.85.007 17.516 1 26-.283.79-.783 1.456-1.5 2-.824-9.51-.658-18.843.5-28z"/><path style="opacity:1" fill="#f9f9f9" d="M129.5 57.5c3.871-.315 7.538.018 11 1a3326.72 3326.72 0 0 0-10 25c-.993-8.484-1.326-17.15-1-26z"/><path style="opacity:1" fill="#fc0000" d="M80.5 66.5c.333 1 1 1.667 2 2 2.516 5.382 4.349 11.049 5.5 17 2 3.166 4.5 5.832 7.5 8 1.051.722 1.718 1.722 2 3-.09 2.652.576 4.985 2 7-.38 2.198.287 3.865 2 5-.073 1.527.594 2.527 2 3a45.728 45.728 0 0 0 7 9l2 6c-.098 2.053.569 3.72 2 5 2.476 5.818 6.142 10.818 11 15 .232 4.442 1.565 8.442 4 12 .754 2.591 2.421 4.424 5 5.5-15.155 15.243-33.489 23.41-55 24.5a3721.74 3721.74 0 0 1 1-122z"/><path style="opacity:1" fill="#f8f8f8" d="M34.5 143.5c0-.667.333-1 1-1 4.247-2.572 6.914-6.238 8-11 2.275-4.036 4.108-8.369 5.5-13l8-8a98.952 98.952 0 0 1 5-15c3.166-2.353 5.333-5.353 6.5-9a5.728 5.728 0 0 1 1-3c2.031-2.922 3.198-6.255 3.5-10a39.355 39.355 0 0 1 4.5-6 2400.517 2400.517 0 0 1 .5 120c-21.309-.23-39.475-8.064-54.5-23.5a18.776 18.776 0 0 0 5.5-4.5c1.836-5.352 3.67-10.685 5.5-16z"/><path style="opacity:1" fill="#100100" d="M106.5 78.5c1.762.762 2.762 2.096 3 4-1.762-.762-2.762-2.096-3-4z"/><path style="opacity:1" fill="#1c1514" d="M53.5 66.5c.93 9.138-2.237 16.471-9.5 22-2.325 3.662-3.658 7.662-4 12-.377 1.442-1.21 2.442-2.5 3 1.002-4.34 2.17-8.674 3.5-13a96.086 96.086 0 0 0 10-13c.108-3.965.941-7.632 2.5-11z"/><path style="opacity:1" fill="#2e2625" d="M109.5 82.5c3.924 2.252 6.257 5.585 7 10a7853.087 7853.087 0 0 0-7-10z"/><path style="opacity:1" fill="#1f1716" d="M82.5 68.5c.958.453 1.792 1.12 2.5 2a38.328 38.328 0 0 1 4 13 110.92 110.92 0 0 0 6.5 10c-3-2.168-5.5-4.834-7.5-8-1.151-5.951-2.984-11.618-5.5-17z"/><path style="opacity:1" fill="#131313" d="M97.5 96.5c.617.11 1.117.444 1.5 1 .496 1.973.662 3.973.5 6-1.424-2.015-2.09-4.348-2-7z"/><path style="opacity:1" fill="#380c01" d="M99.5 103.5c1.037 1.43 1.704 3.097 2 5-1.713-1.135-2.38-2.802-2-5z"/><path style="opacity:1" fill="#2b0a04" d="M37.5 103.5c-1.594 3.264-3.928 5.931-7 8 1.594-3.264 3.928-5.931 7-8z"/><path style="opacity:1" fill="#211919" d="M103.5 111.5c3.512 2.168 5.845 5.168 7 9a45.728 45.728 0 0 1-7-9z"/><path style="opacity:1" fill="#2c1815" d="M68.5 86.5c-1.167 3.647-3.334 6.647-6.5 9a98.952 98.952 0 0 0-5 15l-8 8c-1.392 4.631-3.225 8.964-5.5 13a62.529 62.529 0 0 1 3.5-13c7.316-5.914 11.649-13.58 13-23a106.25 106.25 0 0 0 8.5-9z"/><path style="opacity:1" fill="#fbfbfb" d="M158.5 121.5v70h-77c9.766-1.096 19.432-3.263 29-6.5 26.406-13.247 42.406-34.414 48-63.5z"/><path style="opacity:1" fill="#fcfcfc" d="M-.5 123.5c10.082 40.42 35.748 63.087 77 68h-77v-68z"/><path style="opacity:1" fill="#1f100e" d="M30.5 111.5a280.169 280.169 0 0 1-3.5 13c-3.999 4.037-7.499 8.371-10.5 13 1.313-5.832 4.48-10.499 9.5-14 .838-4.36 2.338-8.36 4.5-12z"/><path style="opacity:1" fill="#482d2a" d="M112.5 126.5c1.713 1.135 2.38 2.802 2 5-1.431-1.28-2.098-2.947-2-5z"/><path style="opacity:1" fill="#2c2221" d="M114.5 131.5c2.676 3.968 5.843 7.635 9.5 11a10.134 10.134 0 0 1 1.5 4c-4.858-4.182-8.524-9.182-11-15z"/><path style="opacity:1" fill="#160503" d="M43.5 131.5c-1.086 4.762-3.753 8.428-8 11a101.28 101.28 0 0 1 8-11z"/><path style="opacity:1" fill="#220a02" d="M125.5 146.5c1.905 3.716 3.239 7.716 4 12-2.435-3.558-3.768-7.558-4-12z"/></svg>
